X: 115104
T: MISS CRAWFORDS REEL
C: by A. Mc. ALPIN.
Q: "Reel."
R:  Reel.
%R: reel
B: James Kerr "Merry Melodies" v.1 p.15 s.1 #4
Z: 2017 John Chambers <jc:trillian.mit.edu>
M: C
L: 1/8
K: A
uE |\
A2(GA) FAEA | FAEA cefa |\
eAfA gAaA | BcBA AGFE |\
A2(GA) FAEA | FAEA cefa |\
ecfa ecaf | ecdB A2A2 |]
agab agfe | dcde fedc |\
BEcE dEcE | BcBA AGFE |\
agab agfe | dcde fedc |\
Bcde fgaf | eagb a2-a |]\
{A}"_Fine"A4 ||

% %newpage
%%sep 1 1 500
%%sep 1 1 500
%%center Set. 25th

%%sep 1 1 500
%%sep 1 1 500

